X: 48
T: The Drunken Landlady
R:reel
M:C|
K:Edor
"Em"BE~E2 "D"BAFA|"Em"BE~E2 "Bm"BAFB|"D"ABAF D2FD|FAAd BAFA|
"Em"BE~E2 "D"BAFA|"Em"BE~E2 "Bm"BAFB|"D"A3B dfec|dBAF "Em"E2FA:|
|:"Em"Beed e2de|"D"f2df "Bm"efdB|"D"ABAF D2FD|FAAd BAFA|
"Em"Beed e2de|"D"f2df "Bm"efdB|"D"A3B dfec|dBAF "Em"E2AF:|


